X:705
%%etbk:tnset id:455,pos:2,rep:3x,ant:
%%etbk:wsite https://thesession.org/tunes/2518
%%etbk:video src:ytube,cde:SJAgv53Q95Q,desc:second tune
%%etbk:color #ffccbf
%%etbk:pldat 2016-09-08T18:05,2016-07-19T20:35,2016-07-15T16:12,2016-06-13T16:51,2016-06-12T14:16,2016-05-25T16:19,2016-05-24T16:11,2016-05-23T18:48,2016-03-31T17:40,2016-01-01T15:44,2015-12-24T15:39,2015-12-22T16:08,2015-12-21T18:51,2015-11-29T15:40,2015-08-23T15:14,2015-08-19T17:34,2015-08-15T16:20,2015-08-10T18:26,2015-07-19T14:11,2015-07-17T15:59,2015-06-06T14:32,2015-06-03T18:09,2015-06-01T16:36,2015-05-20T16:40,2015-05-06T16:45
T: The Queen Of May
Z: Piano Box Version by Martin Fleischmann
H: Created 2015-04-28 /  Last Modified 2016-06-13
R: reel
M: 4/4
L: 1/8
K: Edor
"em"!2!B2!3!d!5!f !4!e!2!Bd!2!B|"D"!1!A2 !2!FD !2!F!4!A!1!A!4!d|"em"!2!B2!3!d!5!f !4!edB!3!c|"bm"!4!dBA=c !2!BEFA|
"em"!2!B2 !2!BA BcdB|"D"!1!A2!2!FD !2!F!4!A!1!A!4!d|"em"!2!B2df edBc|"bm"dBA=c BEFA||
"em"!2!~B2 !4!eB !5!fBeB|"D"!1!defa afed|"em"!2!~B2 eB fBeB|"bm"!4!dBA=c BEFA|
"em"!2!(3Bc!1!d !2!eg !3!~f3 e|"D"de!3!f!5!a !5!af!2!e!5!a|!3!f!5!bba !3!f!5!afe|dBA=c BEFA||


